src/images/mediaLogos/lightTheme/Holzmagazin.svg

<svg width="90" height="16" viewBox="0 0 90 16" fill="none" xmlns="http://www.w3.org/2000/svg">
<path d="M89.5338 11.9454V10.6665C89.1544 10.5722 88.6966 10.4927 88.2393 10.461V6.43675C88.2393 5.06311 87.6711 3.94243 85.9035 3.94243C84.6239 3.94243 83.7091 4.5897 83.2353 5.5052H83.2193C83.2988 5.07917 83.3297 4.44756 83.3297 4.08457C82.2724 4.05324 81.0574 4.10062 80.0471 4.22671V5.48953C80.5049 5.52125 81.0417 5.5843 81.42 5.64734V10.4613C80.947 10.4931 80.4571 10.5726 80.0471 10.6669V11.9458H84.5929V10.6509C84.2456 10.5561 83.8192 10.4927 83.4401 10.461V8.15655C83.4401 6.78369 84.246 5.63089 85.2715 5.63089C86.0135 5.63089 86.2344 6.12075 86.2344 6.92505V11.945H89.5338V11.9454ZM79.6513 11.9454V10.6665C79.2718 10.5722 78.8148 10.4927 78.3728 10.461V4.08418C77.2051 4.05285 75.9893 4.10023 74.9786 4.22632V5.48914C75.4367 5.52086 75.9732 5.5839 76.3526 5.64695V10.461C75.8788 10.4927 75.389 10.5722 74.9786 10.6665V11.9454H79.6513ZM78.6249 1.71672C78.6249 1.02207 78.0572 0.485612 77.3621 0.485612C76.6835 0.485612 76.1153 1.03812 76.1153 1.71672C76.1153 2.39532 76.6831 2.93217 77.3621 2.93217C78.0572 2.93217 78.6249 2.37966 78.6249 1.71672ZM74.4343 11.9454V9.34066H73.1245C73.0454 9.68838 72.9984 10.0197 72.9667 10.3345H72.162C71.7039 10.3345 71.0887 10.3345 70.757 10.3513L74.3392 5.5839V4.10023H68.4836V6.57889H69.8098C69.8729 6.23118 69.9202 5.94728 69.9672 5.61562H70.6779C71.167 5.61562 71.7822 5.59957 72.0821 5.5839L68.4358 10.461V11.9454H74.4343V11.9454ZM64.6328 8.67734C64.6328 9.64022 63.9538 10.5722 62.9604 10.5722C62.3758 10.5722 62.0285 10.1927 62.0285 9.67194C62.0285 8.86647 62.8179 8.48821 64.6328 8.48821V8.67734V8.67734ZM67.9471 11.835V10.5561C67.5367 10.5244 67.032 10.461 66.6526 10.3983V6.65721C66.6526 4.93702 65.9426 3.92637 63.3857 3.92637C62.4071 3.92637 61.4752 4.08418 60.6544 4.32108V6.62588H61.9329C61.9968 6.27817 62.0594 5.91557 62.0911 5.59957C62.422 5.50481 62.8171 5.45782 63.1961 5.45782C64.3004 5.45782 64.632 5.88385 64.632 6.72064V7.19406C61.9646 7.20972 60.1019 8.09389 60.1019 9.97188C60.1019 11.2347 60.9227 12.1024 62.3433 12.1024C63.5121 12.1024 64.4738 11.4873 64.8533 10.6031L64.8693 10.6192C64.8055 11.0291 64.7906 11.5033 64.7906 11.9603C65.8166 11.992 67.0324 11.9454 67.9471 11.835ZM57.8692 13.0504C57.8692 13.7913 57.1753 14.3599 55.8647 14.3599C54.8544 14.3599 54.1915 13.9178 54.1915 13.1922C54.1915 12.7501 54.4601 12.3237 54.9175 11.9924H55.2809L56.6389 12.0402C57.5066 12.0715 57.8692 12.4819 57.8692 13.0504ZM57.2062 6.78369C57.2062 7.62009 56.6694 8.12483 55.786 8.12483C54.8392 8.12483 54.3337 7.60403 54.3337 6.76763C54.3337 5.97822 54.8701 5.39438 55.786 5.39438C56.7172 5.39438 57.2062 5.94729 57.2062 6.78369ZM59.8732 12.7818C59.8732 11.2664 58.8955 10.5404 57.2058 10.4766L55.9908 10.43C55.0749 10.3983 54.7753 10.3035 54.7753 9.94016C54.7753 9.75103 54.9014 9.54585 55.1536 9.43543C55.3745 9.48281 55.5491 9.49808 55.77 9.49808C58.0113 9.49808 59.1312 8.34607 59.1312 6.67326C59.1312 6.26289 58.9899 5.91518 58.7369 5.67827H59.8102V4.10023H57.1428C56.7168 3.98981 56.3691 3.92676 55.8643 3.92676C53.5752 3.92676 52.4075 5.31568 52.4075 6.8945C52.4075 7.92003 52.8496 8.64601 53.5752 9.04072C53.0387 9.27762 52.6444 9.83052 52.6444 10.4457C52.6444 10.9825 52.944 11.4246 53.4174 11.6455C52.7709 11.992 52.2023 12.7497 52.2023 13.5708C52.2023 15.1015 53.4808 15.907 55.5636 15.907C58.1691 15.907 59.8732 14.4703 59.8732 12.7818ZM48.6703 8.67734C48.6703 9.64022 47.9913 10.5722 46.9967 10.5722C46.4133 10.5722 46.066 10.1927 46.066 9.67194C46.066 8.86647 46.8554 8.48821 48.6703 8.48821V8.67734ZM51.985 11.835V10.5561C51.5746 10.5244 51.0699 10.461 50.6905 10.3983V6.65721C50.6905 4.93702 49.9805 3.92637 47.4236 3.92637C46.4446 3.92637 45.5131 4.08418 44.6923 4.32108V6.62588H45.9708C46.0339 6.27817 46.0973 5.91557 46.129 5.59957C46.4607 5.50481 46.855 5.45782 47.2332 5.45782C48.3383 5.45782 48.6699 5.88385 48.6699 6.72064V7.19406C46.0025 7.20972 44.1398 8.09389 44.1398 9.97188C44.1398 11.2347 44.9613 12.1024 46.3812 12.1024C47.5489 12.1024 48.5117 11.4873 48.8912 10.6031L48.9072 10.6192C48.8434 11.0291 48.8277 11.5033 48.8277 11.9603C49.8541 11.992 51.0699 11.9454 51.985 11.835ZM43.6413 11.9454V10.6665C43.2623 10.5722 42.821 10.4927 42.3629 10.461V6.54718C42.3629 4.77883 41.5265 3.94243 40.0111 3.94243C38.6848 3.94243 37.8167 4.7475 37.4541 5.5052C37.2646 4.7475 36.6803 3.94243 35.2918 3.94243C34.1241 3.94243 33.1765 4.55759 32.7031 5.52086L32.6875 5.50481C32.7501 5.06272 32.7818 4.44717 32.7818 4.08418C31.7406 4.05285 30.5087 4.10023 29.4993 4.22632V5.48914C29.9562 5.52086 30.4931 5.5839 30.8721 5.64695V10.461C30.3983 10.4927 29.9092 10.5722 29.4993 10.6665V11.9454H34.0443V10.6509C33.6973 10.5561 33.2713 10.4927 32.8922 10.461V8.18865C32.8922 6.72064 33.7608 5.63089 34.6915 5.63089C35.4653 5.63089 35.6235 6.19946 35.6235 6.97282V11.945H38.7643V10.6509C38.4174 10.5561 38.0062 10.4927 37.6123 10.461V8.18865C37.6123 6.65721 38.5274 5.63089 39.4116 5.63089C40.1536 5.63089 40.3427 6.15208 40.3427 6.98848V11.945H43.6413V11.9454ZM28.9542 11.9454V9.34066H27.644C27.5653 9.68838 27.5175 10.0197 27.4858 10.3345H26.6811C26.2234 10.3345 25.6078 10.3345 25.2761 10.3513L28.8598 5.5839V4.10023H23.0034V6.57889H24.3297C24.3924 6.23118 24.4401 5.94728 24.4871 5.61562H25.1978C25.6869 5.61562 26.3028 5.59957 26.6024 5.5839L22.9561 10.461V11.9454H28.9542ZM22.3883 11.9454V10.6665C22.0096 10.5722 21.5675 10.4927 21.1098 10.461V0.406906C19.9417 0.375189 18.7263 0.422569 17.716 0.548656V1.81148C18.1738 1.8432 18.7106 1.90624 19.0893 1.96929V10.461C18.6159 10.4927 18.1268 10.5722 17.716 10.6665V11.9454H22.3883ZM15.6798 7.98347C15.6798 9.57757 14.9225 10.3823 13.9279 10.3823C12.7599 10.3823 12.176 9.56151 12.176 7.95175C12.176 6.3416 13.0598 5.64695 13.9597 5.64695C15.1438 5.64695 15.6798 6.46847 15.6798 7.98347ZM17.7638 7.87265C17.7638 5.17314 16.3275 3.94203 14.1018 3.94203C11.7183 3.94203 10.0929 5.70999 10.0929 8.15615C10.0929 10.9504 11.5292 12.102 13.7545 12.102C16.1063 12.1024 17.7638 10.3345 17.7638 7.87265ZM9.87006 11.9454V10.6665C9.49101 10.5722 9.00194 10.4927 8.57551 10.461V6.43675C8.57551 5.06311 8.00734 3.94243 6.23978 3.94243C5.02433 3.94243 4.12489 4.52626 3.66714 5.39438H3.63503C3.74584 4.92097 3.77756 4.2737 3.77756 3.80029V0.406515C2.60949 0.374797 1.39405 0.422177 0.383789 0.548264V1.81109C0.841539 1.84281 1.37839 1.90585 1.75704 1.96889V10.4606C1.28323 10.4923 0.794158 10.5718 0.383789 10.6661V11.945H4.92957V10.6509C4.56658 10.5561 4.15621 10.4927 3.77756 10.461V8.1726C3.77756 6.78369 4.58264 5.63089 5.5925 5.63089C6.3502 5.63089 6.57144 6.12075 6.57144 6.92505V11.945H9.87006V11.9454Z" fill="#3A3A3A"/>
</svg>

<svg width="90" height="16" fill="none" xmlns="http://www.w3.org/2000/svg"><path d="M89.534 11.945v-1.279a7.737 7.737 0 0 0-1.295-.205V6.437c0-1.374-.568-2.495-2.336-2.495-1.28 0-2.194.648-2.668 1.563h-.016c.08-.426.11-1.057.11-1.42a22.617 22.617 0 0 0-3.282.142V5.49c.458.031.995.094 1.373.157v4.814a9.036 9.036 0 0 0-1.373.206v1.279h4.546V10.65a6.76 6.76 0 0 0-1.153-.19V8.157c0-1.373.806-2.526 1.832-2.526.741 0 .962.49.962 1.294v5.02h3.3zm-9.883 0v-1.279a7.8 7.8 0 0 0-1.278-.205V4.084a23.483 23.483 0 0 0-3.394.142V5.49c.458.032.994.095 1.374.158v4.814a9.03 9.03 0 0 0-1.374.205v1.28h4.672zM78.625 1.717c0-.695-.568-1.231-1.263-1.231-.678 0-1.247.552-1.247 1.23 0 .68.568 1.216 1.247 1.216.695 0 1.263-.552 1.263-1.215zm-4.19 10.228V9.341h-1.31c-.08.347-.127.679-.158.994h-.805c-.458 0-1.073 0-1.405.016l3.582-4.767V4.1h-5.855V6.58h1.326c.063-.348.11-.632.157-.963h.71c.49 0 1.105-.016 1.405-.032l-3.646 4.877v1.484h5.998zm-9.802-3.268c0 .963-.68 1.895-1.673 1.895-.584 0-.931-.38-.931-.9 0-.806.789-1.184 2.604-1.184v.19zm3.314 3.158v-1.279c-.41-.032-.915-.095-1.294-.158v-3.74c0-1.721-.71-2.732-3.267-2.732-.979 0-1.91.158-2.732.395v2.305h1.279c.064-.348.126-.71.158-1.026.331-.095.726-.142 1.105-.142 1.104 0 1.436.426 1.436 1.263v.473c-2.667.016-4.53.9-4.53 2.778 0 1.263.82 2.13 2.241 2.13 1.17 0 2.13-.615 2.51-1.499l.016.016a9.06 9.06 0 0 0-.078 1.341 22.734 22.734 0 0 0 3.156-.125zM57.87 13.05c0 .741-.694 1.31-2.004 1.31-1.01 0-1.674-.442-1.674-1.168 0-.442.27-.868.726-1.2h.364l1.358.048c.868.032 1.23.442 1.23 1.01zm-.663-6.266c0 .836-.537 1.34-1.42 1.34-.947 0-1.452-.52-1.452-1.356 0-.79.536-1.374 1.452-1.374.931 0 1.42.553 1.42 1.39zm2.667 5.998c0-1.516-.977-2.242-2.667-2.305l-1.215-.047c-.916-.032-1.216-.127-1.216-.49 0-.189.126-.394.379-.505.22.048.395.063.616.063 2.241 0 3.361-1.152 3.361-2.825 0-.41-.141-.758-.394-.995h1.073V4.1h-2.667a4.64 4.64 0 0 0-1.279-.173c-2.289 0-3.456 1.389-3.456 2.967 0 1.026.442 1.752 1.167 2.147-.536.237-.93.79-.93 1.405 0 .537.299.979.772 1.2-.646.346-1.215 1.104-1.215 1.925 0 1.53 1.279 2.336 3.362 2.336 2.605 0 4.31-1.437 4.31-3.125zM48.67 8.677c0 .963-.679 1.895-1.673 1.895-.584 0-.931-.38-.931-.9 0-.806.79-1.184 2.604-1.184v.19zm3.315 3.158v-1.279c-.41-.032-.915-.095-1.294-.158v-3.74c0-1.721-.71-2.732-3.267-2.732-.98 0-1.91.158-2.732.395v2.305h1.279c.063-.348.126-.71.158-1.026a4.151 4.151 0 0 1 1.104-.142c1.105 0 1.437.426 1.437 1.263v.473c-2.668.016-4.53.9-4.53 2.778 0 1.263.821 2.13 2.241 2.13 1.168 0 2.13-.615 2.51-1.499l.016.016c-.064.41-.08.884-.08 1.341a22.746 22.746 0 0 0 3.158-.125zm-8.344.11v-1.279a7.518 7.518 0 0 0-1.278-.205V6.547c0-1.768-.837-2.605-2.352-2.605a2.795 2.795 0 0 0-2.557 1.563c-.19-.758-.774-1.563-2.162-1.563-1.168 0-2.116.616-2.589 1.579l-.016-.016c.063-.442.095-1.058.095-1.42a22.71 22.71 0 0 0-3.283.141V5.49c.457.032.994.095 1.373.158v4.814a9.005 9.005 0 0 0-1.373.205v1.28h4.545V10.65a6.746 6.746 0 0 0-1.152-.19V8.189c0-1.468.869-2.558 1.8-2.558.773 0 .931.568.931 1.342v4.972h3.141v-1.294a6.51 6.51 0 0 0-1.152-.19V8.189c0-1.532.915-2.558 1.8-2.558.742 0 .93.521.93 1.357v4.957h3.3zm-14.687 0V9.341h-1.31a8.186 8.186 0 0 0-.158.994h-.805c-.458 0-1.073 0-1.405.016l3.584-4.767V4.1h-5.857V6.58h1.327c.062-.348.11-.632.157-.963h.71c.49 0 1.106-.016 1.405-.032l-3.646 4.877v1.484h5.998zm-6.566 0v-1.279a7.52 7.52 0 0 0-1.278-.205V.407a23.42 23.42 0 0 0-3.394.142V1.81c.458.032.995.095 1.373.158v8.492a9.036 9.036 0 0 0-1.373.205v1.28h4.672zM15.68 7.983c0 1.595-.758 2.4-1.752 2.4-1.168 0-1.752-.821-1.752-2.431s.884-2.305 1.784-2.305c1.184 0 1.72.821 1.72 2.336zm2.084-.11c0-2.7-1.436-3.931-3.662-3.931-2.384 0-4.01 1.768-4.01 4.214 0 2.794 1.437 3.946 3.662 3.946 2.352 0 4.01-1.768 4.01-4.23zM9.87 11.945v-1.279a8.279 8.279 0 0 0-1.294-.205V6.437c0-1.374-.569-2.495-2.336-2.495-1.216 0-2.115.584-2.573 1.452h-.032c.11-.473.143-1.12.143-1.594V.407A23.42 23.42 0 0 0 .384.548v1.263c.458.032.994.095 1.373.158v8.492a9.02 9.02 0 0 0-1.373.205v1.279H4.93v-1.294a7.024 7.024 0 0 0-1.152-.19V8.173c0-1.39.805-2.542 1.815-2.542.757 0 .978.49.978 1.294v5.02h3.3z" fill="#3A3A3A"/></svg>
